X:1
T:Jeesus sulle elää tahdon
T:adapted from Pachelbel's Canon
T:arr.by Tatu Kantola
%%score 1 2
L:1/8
Q:1/4=78
M:2/4
K:C
V:1 treble nm="Violins 1" snm="Vlns. 1"
V:2 bass nm="Violoncellos" snm="Vlcs."
V:1
"^Adagio" E2 E2 | GA GF | E2 A2 | A2 GE | C2 G,2 | C2 G,2 | C2 E2 | DD EF |:"C" E2 E2 |"G" GF ED | %10
w: ||||||||1.Jee- sus|sul- le e- lää|
w: ||||||||2.Täy- tä|Hen- gel- lä- si.|
"A" C2 C2 |"E" ED CB, |"F" A,2 A,2 |"C" C2 G,2 |"F" C2 E2 |"G" DD EF :|"C" E2 E2 |"G" GA GF | %18
w: tah- don.|Si- nu- a mä|pal- voa|tah- don,|nyt ja|ai- nai- ses- ti.|3.Oi, jos|Jee- sus mu- a|
w: Käy- tä|sa- noit- ta- kin.|Näy- tä|min- ne|vie- dä|mu- a tah- dot.|||
"A" E2 E2 |"E" EG ED |"F" C2 C2 |"C" C2 G,2 |"F" C2 E2 |"G" DD EF |"C" E2 E2 |"G" GA GF | %26
w: käy- tät,|ar- mo- a se|oi- si,|sil- loin|rie- mui-|ta mä sai- sin.|Tääl- lä|sy- dä- me- ni|
w: ||||||||
"A" E2 A2 |"E" A2 GE |"F" C2 G,2 |"C" C2 G,2 |"F" C2 E2 |"G" DD CB, |"C" C4- | C4 |] %34
w: huo- kaa|si- nul- le,|mat- kal-|la- ni|tai- vaan|tie- tä ko- tiin-|päin.||
w: ||||||||
V:2
 C,4 | G,,4 | A,,4 | E,,4 | F,,4 | C,,4 | F,,4 | G,,4 |: C,4 | G,,4 | A,,4 | E,,4 | F,,4 | C,,4 | %14
 F,,4 | G,,4 :| C,4 | G,,4 | A,,4 | E,,4 | F,,4 | C,,4 | F,,4 | G,,4 | C,4 | G,,4 | A,,4 | E,,4 | %28
 F,,4 | C,,4 | F,,4 | G,,4 | C,4- | C,4 |] %34

